X:1
T:Fly Around My Pretty Little Miss
T:Western Country
L:1/4
M:C|
I:linebreak $
K:D
V:1 treble
V:1
 "D" f e d B | d/e/d/B/ A A- | A A B d | [df] e/ [df] [df]-  |$
 "D" f e d B | d/e/d/B/ A A- | "A"A A B/A/c/A/ |  "D" [df]3/2 [de]/ [df]2 ::$
 "D" a a f a | "G"b3/2 a/ b a- | "D" a a a/g/ f | "A"e2 e  f/g/ |$
 "D" a a f a |  "G"b3/2 a/ b a- | "A"a a/a/ g/f/ e | "D" [df]3/2 [de]/ [df]2 :|
